icons/video-camera-17.svg

<svg width="16" height="17" viewBox="0 0 16 17" fill="none" xmlns="http://www.w3.org/2000/svg">
<path fill-rule="evenodd" clip-rule="evenodd" d="M14 4.97888C14 4.77623 13.891 4.58924 13.7146 4.4894C13.5383 4.38955 13.3219 4.39228 13.1481 4.49654L10.25 6.2354V5.72888C10.25 5.00401 9.66237 4.41638 8.9375 4.41638H3.3125C2.58763 4.41638 2 5.00401 2 5.72888V10.6039C2 11.3288 2.58763 11.9164 3.3125 11.9164H8.9375C9.66237 11.9164 10.25 11.3288 10.25 10.6039V10.0973L13.1481 11.8362C13.3219 11.9405 13.5383 11.9432 13.7146 11.8433C13.891 11.7435 14 11.5565 14 11.3539V4.97888ZM10.25 8.7854L12.875 10.3604V5.97236L10.25 7.54736V8.7854ZM9.125 7.22888V5.72888C9.125 5.62533 9.04105 5.54138 8.9375 5.54138H3.3125C3.20895 5.54138 3.125 5.62533 3.125 5.72888V10.6039C3.125 10.7075 3.20895 10.7914 3.3125 10.7914H8.9375C9.04105 10.7914 9.125 10.7075 9.125 10.6039V9.10388V7.22888Z" fill="#272431"/>
</svg>

<svg xmlns="http://www.w3.org/2000/svg" width="16" height="17" viewBox="0 0 16 17"><path fill-rule="evenodd" d="M14 4.979a.562.562 0 00-.852-.482L10.25 6.235V5.73c0-.725-.588-1.313-1.313-1.313H3.314A1.311 1.311 0 002 5.73v4.875c0 .725.588 1.312 1.313 1.312h5.624c.725 0 1.313-.587 1.313-1.312v-.507l2.898 1.74a.562.562 0 00.852-.483V4.979zm-3.75 3.806l2.625 1.575V5.972L10.25 7.547v1.238zM9.125 7.23v-1.5a.188.188 0 00-.188-.188H3.314a.188.188 0 00-.188.188v4.875c0 .104.084.187.188.187h5.624a.187.187 0 00.188-.187V7.229z"/></svg>
